X:1
T:Going Home to Glory
T:Frederick Arthur Graves
T:Going Home to Glory
T:Public Domain
T:Public Domain
C:Frederick Arthur Graves
Z:Public Domain
%%score ( 1 2 ) ( 3 4 )
L:1/8
M:3/4
K:F
V:1 treble 
V:2 treble 
V:3 bass 
V:4 bass 
V:1
 C>[CF] | [FA]2 [FA]2 [CF]>[FA] | [FA]2 [EG]2 [EG]>[FA] | [GB]3 [GB] [FA]>[Ed] | [Fc]4 C>[CF] | %5
w: 1.~Do you|the love of Je-|sus? Does it burn|with- in your heart,|As you think|
w: 2.~Do you|the love of Je-|sus? Is it more|than life to you?|Do you feel|
w: 3.~Oh, my|it is so pre-|cious! Liv- ing just|for Je- sus here;|Ne- ver need|
w: 4.~Je- sus|you, Je- sus calls|you, Won’t you heed|that call to- day?|Give your- self|
 [FA]3 [Fc] [Fc]>[Fc] | [DB]2 [B,D]2 [DG][DG] | [CF]3 [CE] [FA]>[EG] | [CF]4 ||"^Refrain" C>[CF] | %10
w: what He suf- fered,|That His life He|might im- part? *|||
w: arms a- round you?|Do you love His|work to do? We|are|go- ing|
w: fear or trem- ble,|On- ly trust that|Friend so dear. *|||
w: to His keep- ing;|He will lead you|all the way. *|||
 [FA]2 [FA]2 [CF]>[FA] | [FA]2 [EG]2 [EG]>[FA] | [GB]4 [FA]>[Ed] | [Fc]4 C>[CF] | %14
w: ||||
w: to glo- ry, By|and by, by and|by; We are|go- ing home|
w: ||||
w: ||||
 [FA]2 [FA]2 [CF]>[FA] | [FA]2 [EG]2 [EG]>[FA] | ([GB]2 [CE]2) [CE]>[CG] | [CF]4 |] %18
w: ||||
w: glo- ry, By and|by, by and by.|||
w: ||||
w: ||||
V:2
 C3/2 x/ | x6 | x6 | x6 | x4 C3/2 x/ | x6 | x6 | x6 | x4 || C3/2 x/ | x6 | x6 | x6 | x4 C3/2 x/ | %14
w: feel||||of||||||||||
w: know||||His|||||home||||to|
w: friend,||||we||||||||||
w: loves||||in-||||||||||
 x6 | x6 | x6 | x4 |] %18
w: ||||
w: ||||
w: ||||
w: ||||
V:3
 [F,A,]>[F,A,] | [F,C]2 [F,C]2 [F,A,]>[F,C] | [C,C]2 [C,C]2 [C,C]>[C,C] | %3
 [C,C]3 [C,C] [C,C]>[C,B,] | [F,A,]4 [F,A,]>[F,A,] | [F,C]3 [F,A,] [F,A,]>[F,A,] | %6
 [B,,F,]2 [B,,F,]2 [B,,B,][B,,B,] | [C,A,]3 [C,G,] [C,C]>[C,B,] | [F,A,]4 || [F,A,]>[F,A,] | %10
 [F,C]2 [F,C]2 [F,A,]>[F,C] | [C,C]2 [C,C]2 [C,C]>[C,C] | [C,C]4 [C,C]>[C,B,] | %13
 [F,A,]4 [F,A,]>[F,A,] | [F,C]2 [F,C]2 [F,A,]>[F,C] | [C,C]2 [C,C]2 [C,C]>[C,C] | %16
 (C2 G,2) [C,G,]>[C,B,] | [F,A,]4 |] %18
V:4
 x2 | x6 | x6 | x6 | x6 | x6 | x6 | x6 | x4 || x2 | x6 | x6 | x6 | x6 | x6 | x6 | C,4 x2 | x4 |] %18

